src/symbols/warning/26D4.svg

<svg id="emoji" viewBox="0 0 72 72" xmlns="http://www.w3.org/2000/svg">
  <g id="grid">
    <path fill="#b3b3b3" d="M68,4V68H4V4H68m4-4H0V72H72V0Z"/>
    <path fill="none" stroke="#00a5ff" stroke-miterlimit="10" stroke-width="0.1" d="M12.923,10.9583H59.0769A1.9231,1.9231,0,0,1,61,12.8814V59.0352a1.9231,1.9231,0,0,1-1.9231,1.9231H12.9231A1.9231,1.9231,0,0,1,11,59.0352V12.8813A1.923,1.923,0,0,1,12.923,10.9583Z"/>
    <rect x="16" y="4" rx="2.2537" width="40" height="64" fill="none" stroke="#00a5ff" stroke-miterlimit="10" stroke-width="0.1"/>
    <rect x="16" y="4" rx="2.2537" width="40" height="64" transform="translate(72) rotate(90)" fill="none" stroke="#00a5ff" stroke-miterlimit="10" stroke-width="0.1"/>
    <circle cx="36" cy="36" r="29" fill="none" stroke="#00a5ff" stroke-miterlimit="10" stroke-width="0.1"/>
  </g>
  <g id="color">
    <path fill="#ea5a47" stroke="none" stroke-linecap="round" stroke-linejoin="round" stroke-miterlimit="10" stroke-width="2" d="M36,11c-13.8066,0-25,11.1926-25,25c0,13.8066,11.1934,25,25,25c13.8065,0,25-11.1934,25-25C61,22.1926,49.8065,11,36,11z"/>
    <path fill="#FFFFFF" stroke="none" stroke-linecap="round" stroke-linejoin="round" stroke-miterlimit="10" stroke-width="2" d="M55.5195,39.4297c0.1986-1.1263,0.3081-2.2831,0.3081-3.4659c0-1.171-0.1078-2.316-0.3014-3.4306H16.4738 c-0.1936,1.1146-0.3014,2.2596-0.3014,3.4306c0,1.1828,0.1095,2.3396,0.3081,3.4659H55.5195z"/>
  </g>
  <g id="hair"/>
  <g id="skin"/>
  <g id="skin-shadow"/>
  <g id="line">
    <path fill="none" stroke="#000000" stroke-linecap="round" stroke-linejoin="round" stroke-miterlimit="10" stroke-width="2" d="M36,11c-13.8066,0-25,11.1926-25,25c0,13.8066,11.1934,25,25,25c13.8065,0,25-11.1934,25-25C61,22.1926,49.8065,11,36,11z"/>
    <path fill="none" stroke="#000000" stroke-linecap="round" stroke-linejoin="round" stroke-miterlimit="10" stroke-width="2" d="M55.5195,39.4297c0.1986-1.1263,0.3081-2.2831,0.3081-3.4659c0-1.171-0.1078-2.316-0.3014-3.4306H16.4738 c-0.1936,1.1146-0.3014,2.2596-0.3014,3.4306c0,1.1828,0.1095,2.3396,0.3081,3.4659H55.5195z"/>
  </g>
</svg>

<svg viewBox="0 0 72 72" xmlns="http://www.w3.org/2000/svg"><path fill="#b3b3b3" d="M68 4v64H4V4h64m4-4H0v72h72V0z"/><path fill="none" stroke="#00a5ff" stroke-miterlimit="10" stroke-width=".1" d="M12.923 10.958h46.154A1.923 1.923 0 0161 12.881v46.154a1.923 1.923 0 01-1.923 1.923H12.923A1.923 1.923 0 0111 59.035V12.881a1.923 1.923 0 011.923-1.923z"/><rect x="16" y="4" rx="2.254" width="40" height="64" fill="none" stroke="#00a5ff" stroke-miterlimit="10" stroke-width=".1"/><rect x="16" y="4" rx="2.254" width="40" height="64" transform="rotate(90 36 36)" fill="none" stroke="#00a5ff" stroke-miterlimit="10" stroke-width=".1"/><circle cx="36" cy="36" r="29" fill="none" stroke="#00a5ff" stroke-miterlimit="10" stroke-width=".1"/><g stroke-linecap="round" stroke-miterlimit="10" stroke-width="6" stroke="#fff" fill="none" stroke-linejoin="round"><path d="M36 11c-13.807 0-25 11.193-25 25s11.193 25 25 25c13.806 0 25-11.193 25-25S49.806 11 36 11z"/><path d="M55.52 39.43c.198-1.127.308-2.283.308-3.466a19.97 19.97 0 00-.302-3.43H16.474a20.023 20.023 0 00-.302 3.43c0 1.183.11 2.34.308 3.466h39.04z"/></g><path fill="#ea5a47" d="M36 11c-13.807 0-25 11.193-25 25s11.193 25 25 25c13.806 0 25-11.193 25-25S49.806 11 36 11z"/><path fill="#FFF" d="M55.52 39.43c.198-1.127.308-2.283.308-3.466a19.97 19.97 0 00-.302-3.43H16.474a20.023 20.023 0 00-.302 3.43c0 1.183.11 2.34.308 3.466h39.04z"/><g fill="none" stroke="#000" stroke-linecap="round" stroke-linejoin="round" stroke-miterlimit="10" stroke-width="2"><path d="M36 11c-13.807 0-25 11.193-25 25s11.193 25 25 25c13.806 0 25-11.193 25-25S49.806 11 36 11z"/><path d="M55.52 39.43c.198-1.127.308-2.283.308-3.466a19.97 19.97 0 00-.302-3.43H16.474a20.023 20.023 0 00-.302 3.43c0 1.183.11 2.34.308 3.466h39.04z"/></g></svg>
